X: 1
T: a Tune for Elsa
C: Daniel Gourdon
N: pour cercle circassien
R: jig
Z: 2020 John Chambers <jc:trillian.mit.edu>
S: https://www.youtube.com/watch?v=0IRppJkfOO4
M: 6/8
L: 1/8
K: D
|:\
FAA GBB | cee def | gfe age | ded cBA |\
EAA Gce | edc def | gfe age | edc d2z :|
|:\
eAe AeA | fed ecA | EAG Ace | dcd efg |\
eBe efa | gfe fdc | EAA Gce | edc d2z :|
